X:459
T:Uncle Henry's Jig
M:6/8
L:1/8
K:D
A |"D"AFA d2 e|fed A2 e|a^ga bag|"B7"a3 a=gf|
"Em"g2 g "A7"gfe|"D"def {g}fed|"A7"cde edc|"D"d3 d2:|
|:A|"D"AFA d2 e|f2 b a3|"B7"agf "Em"g3|
"A7"gfe "D"f3|"D"AFA d2 e|f2 b a3|agf "A7"gfe|"D"d3 d2:|

